;FLAVOR:Marlin
;TIME:5734
;Filament used: 13.0542m
;Layer height: 0.32
;MINX:61.216
;MINY:76.716
;MINZ:0.32
;MAXX:173.784
;MAXY:158.284
;MAXZ:22.4
;Generated with Cura_SteamEngine 4.13.1
M140 S50
M105
M190 S50
M104 S200
M105
M109 S200
M82 ;absolute extrusion mode
; Ender 3 Custom Start G-code
G92 E0 ; Reset Extruder
G28 ; Home all axes
G1 Z2.0 F3000 ; Move Z Axis up little to prevent scratching of Heat Bed
G1 X0.1 Y20 Z0.3 F5000.0 ; Move to start position
G1 X0.1 Y200.0 Z0.3 F1500.0 E15 ; Draw the first line
G1 X0.4 Y200.0 Z0.3 F5000.0 ; Move to side a little
G1 X0.4 Y20 Z0.3 F1500.0 E30 ; Draw the second line
G92 E0 ; Reset Extruder
G1 Z2.0 F3000 ; Move Z Axis up little to prevent scratching of Heat Bed
G1 X5 Y20 Z0.3 F5000.0 ; Move over to prevent blob squish
G92 E0
G92 E0
G1 F2700 E-5
;LAYER_COUNT:70
;LAYER:0
M107
G0 F6000 X68.507 Y81.739 Z0.32
;TYPE:SKIRT
G1 F2700 E0
G1 F1200 X69.006 Y81.323 E0.06914
G1 X69.243 Y81.136 E0.10128
G1 X69.672 Y80.813 E0.15843
G1 X69.985 Y80.588 E0.19946
G1 X70.604 Y80.172 E0.27883
G1 X71.32 Y79.722 E0.36884
G1 X72.355 Y79.141 E0.49517
G1 X73.144 Y78.748 E0.58898
G1 X74.205 Y78.282 E0.71232
G1 X74.981 Y77.985 E0.80076
G1 X75.46 Y77.813 E0.85492
G1 X75.684 Y77.738 E0.88007
G1 X76.26 Y77.561 E0.9442
G1 X76.478 Y77.5 E0.96829
G1 X76.944 Y77.38 E1.01951
G1 X77.387 Y77.275 E1.06796
G1 X78.149 Y77.12 E1.15073
G1 X78.898 Y76.993 E1.23158
G1 X79.708 Y76.884 E1.31857
G1 X80.517 Y76.803 E1.4051
G1 X81.038 Y76.762 E1.46073
G1 X81.322 Y76.746 E1.491
G1 X81.826 Y76.728 E1.54468
G1 X82.545 Y76.719 E1.62121
G1 X83.604 Y76.718 E1.73392
G1 X89.675 Y76.739 E2.38008
G1 X90.309 Y76.739 E2.44755
G1 X96.808 Y76.716 E3.13926
G1 X97.505 Y76.72 E3.21345
G1 X98.337 Y76.735 E3.30201
G1 X98.715 Y76.748 E3.34227
G1 X98.937 Y76.759 E3.36593
G1 X99.456 Y76.796 E3.4213
G1 X99.703 Y76.819 E3.44771
G1 X100.124 Y76.865 E3.49278
G1 X101.024 Y76.981 E3.58936
G1 X101.427 Y77.04 E3.63271
G1 X102.989 Y77.297 E3.8012
G1 X103.341 Y77.36 E3.83925
G1 X105.796 Y77.726 E4.10343
G1 X108.284 Y78.024 E4.37013
G1 X110.761 Y78.251 E4.63487
G1 X113.22 Y78.406 E4.89711
G1 X115.721 Y78.493 E5.16345
G1 X118.223 Y78.509 E5.42975
G1 X120.689 Y78.455 E5.69228
G1 X123.203 Y78.328 E5.96019
G1 X125.665 Y78.136 E6.22302
G1 X128.137 Y77.87 E6.48764
G1 X130.624 Y77.533 E6.75476
G1 X132.278 Y77.268 E6.93304
G1 X133.898 Y76.993 E7.10793
G1 X134.709 Y76.884 E7.19502
G1 X135.516 Y76.803 E7.28135
G1 X136.037 Y76.762 E7.33697
G1 X136.32 Y76.746 E7.36714
G1 X136.826 Y76.728 E7.42103
G1 X137.545 Y76.719 E7.49756
G1 X138.604 Y76.718 E7.61027
G1 X144.675 Y76.739 E8.25642
G1 X145.309 Y76.739 E8.3239
G1 X151.808 Y76.716 E9.01561
G1 X152.505 Y76.72 E9.0898
G1 X153.337 Y76.735 E9.17836
G1 X153.715 Y76.748 E9.21862
G1 X153.937 Y76.759 E9.24227
G1 X154.456 Y76.796 E9.29765
G1 X154.703 Y76.819 E9.32406
G1 X155.124 Y76.865 E9.36913
G1 X156.024 Y76.981 E9.46571
G1 X156.354 Y77.028 E9.50119
G1 X157.243 Y77.198 E9.59752
G1 X158.009 Y77.374 E9.68117
G1 X158.398 Y77.47 E9.72382
G1 X158.628 Y77.531 E9.74914
G1 X159.267 Y77.72 E9.82007
G1 X159.525 Y77.804 E9.84894
G1 X160.037 Y77.983 E9.90667
G1 X160.571 Y78.184 E9.9674
G1 X161.173 Y78.429 E10.03658
G1 X161.355 Y78.509 E10.05773
G1 X161.734 Y78.684 E10.10217
G1 X162.336 Y78.974 E10.17328
G1 X163.021 Y79.331 E10.2555
G1 X163.28 Y79.477 E10.28714
G1 X163.694 Y79.722 E10.33834
G1 X164.021 Y79.924 E10.37925
G1 X164.663 Y80.35 E10.46126
G1 X165.35 Y80.838 E10.55094
G1 X165.645 Y81.054 E10.58986
G1 X165.785 Y81.16 E10.60855
G1 X166.346 Y81.612 E10.68523
G1 X166.52 Y81.761 E10.70961
G1 X166.943 Y82.141 E10.77013
G1 X167.05 Y82.242 E10.78579
G1 X167.298 Y82.469 E10.82157
G1 X167.832 Y82.989 E10.9009
G1 X168.019 Y83.183 E10.92958
G1 X168.384 Y83.579 E10.9869
G1 X168.761 Y84.007 E11.0476
G1 X169.177 Y84.506 E11.11675
G1 X169.364 Y84.743 E11.14888
G1 X169.687 Y85.172 E11.20603
G1 X169.912 Y85.485 E11.24706
G1 X170.328 Y86.104 E11.32644
G1 X170.778 Y86.82 E11.41644
G1 X171.359 Y87.855 E11.54277
G1 X171.752 Y88.644 E11.63659
G1 X172.218 Y89.705 E11.75992
G1 X172.515 Y90.481 E11.84836
G1 X172.687 Y90.96 E11.90253
G1 X172.762 Y91.184 E11.92767
G1 X172.935 Y91.747 E11.99035
G1 X172.996 Y91.964 E12.01435
G1 X173.122 Y92.449 E12.06768
G1 X173.227 Y92.893 E12.11624
G1 X173.38 Y93.646 E12.19802
G1 X173.507 Y94.394 E12.27877
G1 X173.616 Y95.209 E12.36629
G1 X173.697 Y96.019 E12.45293
G1 X173.738 Y96.538 E12.50834
G1 X173.754 Y96.822 E12.53861
G1 X173.772 Y97.313 E12.5909
G1 X173.781 Y98.008 E12.66488
G1 X173.782 Y99.074 E12.77834
G1 X173.76 Y105.541 E13.46664
G1 X173.76 Y129.889 E16.05806
G1 X173.784 Y136.26 E16.73614
G1 X173.78 Y137.005 E16.81544
G1 X173.765 Y137.837 E16.904
G1 X173.754 Y138.176 E16.9401
G1 X173.744 Y138.392 E16.96312
G1 X173.703 Y138.97 E17.02479
G1 X173.679 Y139.223 E17.05184
G1 X173.634 Y139.626 E17.095
G1 X173.486 Y140.76 E17.21671
G1 X173.476 Y140.827 E17.22392
G1 X173.302 Y141.743 E17.32316
G1 X173.126 Y142.509 E17.40681
G1 X173.023 Y142.923 E17.45222
G1 X172.962 Y143.151 E17.47734
G1 X172.789 Y143.739 E17.54257
G1 X172.705 Y143.999 E17.57165
G1 X172.517 Y144.537 E17.63231
G1 X172.316 Y145.071 E17.69304
G1 X172.061 Y145.695 E17.76478
G1 X171.981 Y145.876 E17.78584
G1 X171.819 Y146.226 E17.82689
G1 X171.529 Y146.829 E17.89811
G1 X171.176 Y147.507 E17.97946
G1 X171.031 Y147.765 E18.01096
G1 X170.774 Y148.201 E18.06483
G1 X170.571 Y148.529 E18.10588
G1 X170.155 Y149.156 E18.18597
G1 X169.672 Y149.837 E18.27483
G1 X169.429 Y150.168 E18.31853
G1 X169.317 Y150.315 E18.3382
G1 X168.865 Y150.873 E18.41463
G1 X168.716 Y151.046 E18.43893
G1 X168.36 Y151.441 E18.49553
G1 X168.299 Y151.505 E18.50494
G1 X168.044 Y151.785 E18.54524
G1 X167.511 Y152.332 E18.62653
G1 X167.317 Y152.519 E18.65521
G1 X166.921 Y152.884 E18.71253
G1 X166.493 Y153.261 E18.77323
G1 X165.994 Y153.677 E18.84238
G1 X165.757 Y153.864 E18.87451
G1 X165.328 Y154.187 E18.93166
G1 X165.015 Y154.412 E18.97269
G1 X164.396 Y154.828 E19.05207
G1 X163.68 Y155.278 E19.14208
G1 X162.645 Y155.859 E19.2684
G1 X161.856 Y156.252 E19.36222
G1 X160.795 Y156.718 E19.48556
G1 X160.019 Y157.015 E19.57399
G1 X159.54 Y157.187 E19.62816
G1 X159.316 Y157.262 E19.6533
G1 X158.74 Y157.439 E19.71743
G1 X158.522 Y157.5 E19.74153
G1 X158.056 Y157.62 E19.79274
G1 X157.613 Y157.725 E19.8412
G1 X156.851 Y157.88 E19.92396
G1 X156.102 Y158.007 E20.00482
G1 X155.292 Y158.116 E20.0918
G1 X154.483 Y158.197 E20.17834
G1 X153.962 Y158.238 E20.23396
G1 X153.678 Y158.254 E20.26424
G1 X153.174 Y158.272 E20.31791
G1 X152.455 Y158.281 E20.39444
G1 X151.396 Y158.282 E20.50716
G1 X145.325 Y158.261 E21.15331
G1 X144.691 Y158.261 E21.22079
G1 X138.192 Y158.284 E21.9125
G1 X137.495 Y158.28 E21.98668
G1 X136.663 Y158.265 E22.07525
G1 X136.285 Y158.252 E22.1155
G1 X136.063 Y158.241 E22.13916
G1 X135.544 Y158.204 E22.19454
G1 X135.297 Y158.181 E22.22094
G1 X134.876 Y158.135 E22.26602
G1 X133.976 Y158.019 E22.3626
G1 X133.573 Y157.96 E22.40595
G1 X132.011 Y157.703 E22.57443
G1 X131.659 Y157.64 E22.61249
G1 X129.204 Y157.274 E22.87667
G1 X126.716 Y156.976 E23.14337
G1 X124.239 Y156.749 E23.4081
G1 X121.78 Y156.594 E23.67034
G1 X119.279 Y156.507 E23.93669
G1 X116.777 Y156.491 E24.20299
G1 X114.311 Y156.545 E24.46551
G1 X111.797 Y156.672 E24.73343
G1 X109.335 Y156.864 E24.99626
G1 X106.863 Y157.13 E25.26088
G1 X104.376 Y157.467 E25.52799
G1 X102.722 Y157.732 E25.70628
G1 X101.102 Y158.007 E25.88117
G1 X100.291 Y158.116 E25.96826
G1 X99.484 Y158.197 E26.05458
G1 X98.963 Y158.238 E26.1102
G1 X98.68 Y158.254 E26.14037
G1 X98.174 Y158.272 E26.19426
G1 X97.455 Y158.281 E26.27079
G1 X96.396 Y158.282 E26.3835
G1 X90.325 Y158.261 E27.02966
G1 X89.691 Y158.261 E27.09714
G1 X83.192 Y158.284 E27.78885
G1 X82.494 Y158.28 E27.86314
G1 X81.663 Y158.265 E27.9516
G1 X81.291 Y158.253 E27.99121
G1 X81.067 Y158.242 E28.01508
G1 X80.534 Y158.203 E28.07196
G1 X80.289 Y158.18 E28.09815
G1 X79.879 Y158.135 E28.14205
G1 X78.978 Y158.019 E28.23874
G1 X78.646 Y157.972 E28.27442
G1 X77.757 Y157.802 E28.37076
G1 X76.991 Y157.626 E28.45441
G1 X76.577 Y157.523 E28.49982
G1 X76.349 Y157.462 E28.52494
G1 X75.761 Y157.289 E28.59017
G1 X75.501 Y157.205 E28.61925
G1 X74.963 Y157.017 E28.67991
G1 X74.429 Y156.816 E28.74064
G1 X73.827 Y156.571 E28.80981
G1 X73.645 Y156.491 E28.83097
G1 X73.28 Y156.323 E28.87374
G1 X72.676 Y156.033 E28.94505
G1 X72.023 Y155.694 E29.02335
G1 X71.842 Y155.593 E29.04541
G1 X71.418 Y155.345 E29.09769
G1 X71.015 Y155.098 E29.148
G1 X70.337 Y154.65 E29.23449
G1 X69.65 Y154.162 E29.32418
G1 X69.335 Y153.93 E29.36582
G1 X69.193 Y153.822 E29.38481
G1 X68.63 Y153.367 E29.46185
G1 X68.458 Y153.219 E29.486
G1 X68.059 Y152.86 E29.54313
G1 X67.955 Y152.762 E29.55834
G1 X67.713 Y152.541 E29.59322
G1 X67.166 Y152.009 E29.67443
G1 X66.98 Y151.816 E29.70296
G1 X66.621 Y151.426 E29.75938
G1 X66.24 Y150.994 E29.82068
G1 X65.803 Y150.469 E29.89338
G1 X65.62 Y150.236 E29.92492
G1 X65.317 Y149.834 E29.97849
G1 X65.091 Y149.52 E30.01967
G1 X64.667 Y148.889 E30.10058
G1 X64.217 Y148.172 E30.19068
G1 X63.64 Y147.143 E30.31624
G1 X63.247 Y146.354 E30.41006
G1 X62.78 Y145.29 E30.53373
G1 X62.484 Y144.516 E30.62193
G1 X62.313 Y144.04 E30.67576
G1 X62.238 Y143.816 E30.7009
G1 X62.061 Y143.24 E30.76503
G1 X62 Y143.022 E30.78913
G1 X61.88 Y142.556 E30.84034
G1 X61.775 Y142.113 E30.8888
G1 X61.618 Y141.338 E30.97296
G1 X61.49 Y140.578 E31.05499
G1 X61.383 Y139.782 E31.14047
G1 X61.303 Y138.984 E31.22583
G1 X61.262 Y138.455 E31.2823
G1 X61.246 Y138.168 E31.31289
G1 X61.228 Y137.672 E31.36572
G1 X61.219 Y136.955 E31.44204
G1 X61.218 Y135.897 E31.55464
G1 X61.24 Y129.402 E32.24592
G1 X61.24 Y105.111 E34.83128
G1 X61.216 Y98.687 E35.515
G1 X61.22 Y97.995 E35.58865
G1 X61.235 Y97.163 E35.67722
G1 X61.248 Y96.785 E35.71748
G1 X61.259 Y96.563 E35.74113
G1 X61.296 Y96.044 E35.79651
G1 X61.319 Y95.797 E35.82291
G1 X61.365 Y95.376 E35.86799
G1 X61.481 Y94.476 E35.96457
G1 X61.528 Y94.146 E36.00005
G1 X61.698 Y93.257 E36.09638
G1 X61.874 Y92.491 E36.18003
G1 X61.97 Y92.102 E36.22268
G1 X62.031 Y91.872 E36.248
G1 X62.22 Y91.233 E36.31892
G1 X62.304 Y90.975 E36.3478
G1 X62.471 Y90.496 E36.40179
G1 X62.659 Y89.992 E36.45905
G1 X62.913 Y89.365 E36.53105
G1 X63.006 Y89.153 E36.55569
G1 X63.188 Y88.759 E36.60188
G1 X63.479 Y88.156 E36.67314
G1 X63.835 Y87.474 E36.75502
G1 X63.98 Y87.217 E36.78643
G1 X64.213 Y86.821 E36.83533
G1 X64.415 Y86.493 E36.87633
G1 X64.85 Y85.837 E36.9601
G1 X65.338 Y85.15 E37.04979
G1 X65.562 Y84.845 E37.09007
G1 X65.669 Y84.704 E37.10891
G1 X66.135 Y84.127 E37.18785
G1 X66.284 Y83.954 E37.21215
G1 X66.64 Y83.559 E37.26874
G1 X66.701 Y83.495 E37.27815
G1 X66.956 Y83.215 E37.31846
G1 X67.489 Y82.668 E37.39975
G1 X67.683 Y82.481 E37.42842
G1 X68.079 Y82.116 E37.48574
G1 X68.507 Y81.739 E37.54645
G0 F6000 X69.036 Y82.34
G1 F1200 X69.501 Y81.951 E37.61097
G1 X69.738 Y81.764 E37.64311
G1 X70.139 Y81.463 E37.69647
G1 X70.452 Y81.238 E37.7375
G1 X71.029 Y80.849 E37.81156
G1 X71.745 Y80.399 E37.90157
G1 X72.711 Y79.857 E38.01946
G1 X73.5 Y79.464 E38.11328
G1 X74.491 Y79.029 E38.22846
G1 X75.267 Y78.732 E38.3169
G1 X75.714 Y78.571 E38.36747
G1 X75.938 Y78.496 E38.39261
G1 X76.476 Y78.331 E38.4525
G1 X76.694 Y78.27 E38.47659
G1 X77.129 Y78.158 E38.5244
G1 X77.572 Y78.053 E38.57286
G1 X78.283 Y77.909 E38.65007
G1 X79.032 Y77.782 E38.73092
G1 X79.788 Y77.68 E38.81212
G1 X80.597 Y77.599 E38.89865
G1 X81.083 Y77.561 E38.95053
G1 X81.367 Y77.545 E38.98081
G1 X81.837 Y77.528 E39.03086
G1 X82.546 Y77.519 E39.10633
G1 X83.601 Y77.518 E39.21862
G1 X89.672 Y77.539 E39.86477
G1 X90.312 Y77.539 E39.93289
G1 X96.805 Y77.516 E40.62396
G1 X97.491 Y77.52 E40.69697
G1 X98.323 Y77.535 E40.78554
G1 X98.675 Y77.547 E40.82303
G1 X98.897 Y77.558 E40.84668
G1 X99.381 Y77.592 E40.89832
G1 X99.628 Y77.615 E40.92473
G1 X100.022 Y77.659 E40.96692
G1 X100.922 Y77.775 E41.0635
G1 X101.298 Y77.83 E41.10395
G1 X102.848 Y78.085 E41.27113
G1 X103.185 Y78.145 E41.30757
G1 X105.721 Y78.523 E41.58046
G1 X108.188 Y78.819 E41.84491
G1 X110.672 Y79.047 E42.1104
G1 X113.214 Y79.207 E42.38149
G1 X115.688 Y79.293 E42.64496
G1 X118.236 Y79.309 E42.91616
G1 X120.711 Y79.255 E43.17964
G1 X123.234 Y79.128 E43.44851
G1 X125.747 Y78.931 E43.71679
G1 X128.222 Y78.665 E43.98173
G1 X130.775 Y78.319 E44.25594
G1 X132.424 Y78.055 E44.43368
G1 X134.032 Y77.782 E44.60727
G1 X134.788 Y77.68 E44.68846
G1 X135.595 Y77.599 E44.77479
G1 X136.082 Y77.561 E44.82678
G1 X136.365 Y77.545 E44.85695
G1 X136.837 Y77.528 E44.90721
G1 X137.546 Y77.519 E44.98268
G1 X138.601 Y77.518 E45.09497
G1 X144.672 Y77.539 E45.74112
G1 X145.312 Y77.539 E45.80924
G1 X151.805 Y77.516 E46.50031
G1 X152.491 Y77.52 E46.57332
G1 X153.323 Y77.535 E46.66189
G1 X153.675 Y77.547 E46.69938
G1 X153.897 Y77.558 E46.72303
G1 X154.381 Y77.592 E46.77467
G1 X154.628 Y77.615 E46.80107
G1 X155.022 Y77.659 E46.84327
G1 X155.922 Y77.775 E46.93985
G1 X156.234 Y77.819 E46.97339
G1 X157.064 Y77.977 E47.06331
G1 X157.83 Y78.153 E47.14696
G1 X158.193 Y78.243 E47.18677
G1 X158.423 Y78.304 E47.21209
G1 X159.019 Y78.48 E47.27824
G1 X159.277 Y78.564 E47.30711
G1 X159.755 Y78.732 E47.36104
G1 X160.289 Y78.933 E47.42177
G1 X160.851 Y79.162 E47.48636
G1 X161.033 Y79.242 E47.50752
G1 X161.387 Y79.405 E47.549
G1 X161.989 Y79.695 E47.62012
G1 X162.628 Y80.028 E47.69681
G1 X162.887 Y80.174 E47.72845
G1 X163.273 Y80.402 E47.77617
G1 X163.6 Y80.604 E47.81707
G1 X164.2 Y81.002 E47.89371
G1 X164.887 Y81.49 E47.98339
G1 X165.162 Y81.692 E48.01971
G1 X165.302 Y81.798 E48.0384
G1 X165.826 Y82.22 E48.11001
G1 X166 Y82.369 E48.13439
G1 X166.394 Y82.723 E48.19076
G1 X166.758 Y83.059 E48.24349
G1 X167.256 Y83.544 E48.31747
G1 X167.443 Y83.738 E48.34615
G1 X167.783 Y84.108 E48.39963
G1 X168.16 Y84.536 E48.46034
G1 X168.549 Y85.001 E48.52486
G1 X168.736 Y85.238 E48.55699
G1 X169.037 Y85.639 E48.61036
G1 X169.262 Y85.952 E48.65139
G1 X169.651 Y86.529 E48.72545
G1 X170.101 Y87.245 E48.81546
G1 X170.643 Y88.211 E48.93335
G1 X171.036 Y89 E49.02717
G1 X171.471 Y89.991 E49.14235
G1 X171.768 Y90.767 E49.23079
G1 X171.929 Y91.214 E49.28136
G1 X172.004 Y91.438 E49.3065
G1 X172.165 Y91.963 E49.36494
G1 X172.226 Y92.18 E49.38893
G1 X172.343 Y92.633 E49.43873
G1 X172.448 Y93.077 E49.48729
G1 X172.591 Y93.78 E49.56364
G1 X172.718 Y94.528 E49.64439
G1 X172.82 Y95.289 E49.72611
G1 X172.901 Y96.099 E49.81275
G1 X172.939 Y96.583 E49.86443
G1 X172.955 Y96.867 E49.8947
G1 X172.972 Y97.326 E49.94359
G1 X172.981 Y98.009 E50.01629
G1 X172.982 Y99.071 E50.12932
G1 X172.96 Y105.538 E50.81762
G1 X172.96 Y129.889 E53.40936
G1 X172.984 Y136.257 E54.08712
G1 X172.98 Y136.991 E54.16525
G1 X172.965 Y137.823 E54.25381
G1 X172.955 Y138.139 E54.28746
G1 X172.945 Y138.355 E54.31047
G1 X172.907 Y138.895 E54.36809
G1 X172.883 Y139.148 E54.39514
G1 X172.841 Y139.523 E54.4353
G1 X172.725 Y140.422 E54.53178
G1 X172.684 Y140.709 E54.56263
G1 X172.523 Y141.564 E54.65523
G1 X172.347 Y142.33 E54.73888
G1 X172.25 Y142.717 E54.78135
G1 X172.189 Y142.945 E54.80647
G1 X172.028 Y143.493 E54.86726
G1 X171.944 Y143.753 E54.89634
G1 X171.768 Y144.255 E54.95296
G1 X171.567 Y144.789 E55.01368
G1 X171.329 Y145.372 E55.0807
G1 X171.249 Y145.553 E55.10177
G1 X171.098 Y145.879 E55.14
G1 X170.808 Y146.482 E55.21122
G1 X170.479 Y147.115 E55.28715
G1 X170.334 Y147.373 E55.31865
G1 X170.094 Y147.78 E55.36894
G1 X169.891 Y148.108 E55.40999
G1 X169.503 Y148.693 E55.4847
G1 X169.02 Y149.374 E55.57356
G1 X168.793 Y149.683 E55.61437
G1 X168.681 Y149.83 E55.63404
G1 X168.258 Y150.351 E55.70547
G1 X168.109 Y150.524 E55.72977
G1 X167.777 Y150.893 E55.7826
G1 X167.693 Y150.982 E55.79562
G1 X167.453 Y151.245 E55.83352
G1 X166.956 Y151.756 E55.90939
G1 X166.762 Y151.943 E55.93807
G1 X166.392 Y152.283 E55.99155
G1 X165.964 Y152.66 E56.05225
G1 X165.499 Y153.049 E56.11678
G1 X165.262 Y153.236 E56.14891
G1 X164.861 Y153.537 E56.20227
G1 X164.548 Y153.762 E56.2433
G1 X163.971 Y154.151 E56.31737
G1 X163.255 Y154.601 E56.40737
G1 X162.289 Y155.143 E56.52526
G1 X161.5 Y155.536 E56.61908
G1 X160.509 Y155.971 E56.73427
G1 X159.733 Y156.268 E56.8227
G1 X159.286 Y156.429 E56.87327
G1 X159.062 Y156.504 E56.89841
